icons/svg/transport/charging_station.svg

<?xml version="1.0" encoding="UTF-8" standalone="no"?>
<!-- Created with Inkscape (http://www.inkscape.org/) -->

<svg
   xmlns:dc="http://purl.org/dc/elements/1.1/"
   xmlns:cc="http://creativecommons.org/ns#"
   xmlns:rdf="http://www.w3.org/1999/02/22-rdf-syntax-ns#"
   xmlns:svg="http://www.w3.org/2000/svg"
   xmlns="http://www.w3.org/2000/svg"
   xmlns:sodipodi="http://sodipodi.sourceforge.net/DTD/sodipodi-0.dtd"
   xmlns:inkscape="http://www.inkscape.org/namespaces/inkscape"
   version="1.0"
   width="580"
   height="580"
   id="svg2"
   sodipodi:version="0.32"
   inkscape:version="0.48.4 r9939"
   sodipodi:docname="ev_charging.svg"
   inkscape:output_extension="org.inkscape.output.svg.inkscape">
  <metadata
     id="metadata10">
    <rdf:RDF>
      <cc:Work
         rdf:about="">
        <dc:format>image/svg+xml</dc:format>
        <dc:type
           rdf:resource="http://purl.org/dc/dcmitype/StillImage" />
        <cc:license
           rdf:resource="http://web.resource.org/cc/PublicDomain" />
        <dc:language>en</dc:language>
        <dc:title />
      </cc:Work>
    </rdf:RDF>
  </metadata>
  <sodipodi:namedview
     inkscape:window-height="995"
     inkscape:window-width="1280"
     inkscape:pageshadow="2"
     inkscape:pageopacity="0.0"
     guidetolerance="10.0"
     gridtolerance="10.0"
     objecttolerance="10.0"
     borderopacity="1.0"
     bordercolor="#666666"
     pagecolor="#ffffff"
     id="base"
     showgrid="false"
     inkscape:zoom="0.35355339"
     inkscape:cx="26.887052"
     inkscape:cy="495.60038"
     inkscape:window-x="0"
     inkscape:window-y="0"
     inkscape:current-layer="svg2"
     inkscape:window-maximized="1" />
  <defs
     id="defs4">
    <clipPath
       id="clipoutline2"
       clipPathUnits="userSpaceOnUse">
      <path
         d="M 55.8,12 L 56.56,12.16 C 65.4,9.22 85.24,20.8 80.82,31.12 C 79.7,32.74 79.89,35.62 81.24,37.43 L 56.43,62.25 C 55.04,60.86 51.95,60.89 50.53,62.25 L 9.5,101.63 C 5.76,105.22 8.7,108.27 10.28,109.88 L 17.64,117.24 C 19.25,118.84 23.5,121 26.52,117.8 L 65.24,76.99 C 66.59,75.57 66.6,72.52 65.24,71.12 C 65.24,71.12 65.25,71.1 65.24,71.1 L 90.15,46.2 C 92.78,48.57 95.263827,48.774854 97.62,48.13 C 102.17057,46.884568 104.70725,51.336643 107.43,54.59 L 106.2,55.8 C 104.38,57.64 104.55,60.74 106.59,62.78 C 108.63,64.82 111.74,64.99 113.56,63.17 L 121.7,55.04 C 123.52,53.2 123.35,50.1 121.3,48.07 C 119.46,46.22 116.79,45.98 114.93,47.3 C 109.35,41.04 112.28,40.1 104.92,31.95 L 91.13,17.86 C 81.2,8.12 68.3,8.13 55.8,12 z"
         id="outline2" />
    </clipPath>
    <clipPath
       id="clipoutline1"
       clipPathUnits="userSpaceOnUse">
      <path
         d="M 22.42,17.2 L 35.38,30.15 L 32.88,38.93 L 24.1,41.43 L 11.14,28.47 L 5.28,34.33 L 20.17,55.79 L 37.73,52.45 L 99.36,118.07 C 108.8,127.58 121.53,113.32 112.7,105.2 L 46.85,42.92 L 50.86,25.16 L 28.72,10.89 L 22.42,17.2 z M 103.48,109.17 C 105.16,107.49 107.88,107.49 109.56,109.17 C 111.24,110.85 111.24,113.57 109.56,115.25 C 107.88,116.92 105.16,116.92 103.48,115.25 C 101.8,113.57 101.8,110.85 103.48,109.17 z"
         id="outline1" />
    </clipPath>
    <inkscape:perspective
       sodipodi:type="inkscape:persp3d"
       inkscape:vp_x="0 : 290 : 1"
       inkscape:vp_y="0 : 1000 : 0"
       inkscape:vp_z="580 : 290 : 1"
       inkscape:persp3d-origin="290 : 193.33333 : 1"
       id="perspective12" />
    <style
       type="text/css"
       id="style6">
   
    .fil0 {fill:#EF7900}
   
  </style>
    <inkscape:perspective
       id="perspective6807"
       inkscape:persp3d-origin="29.116032 : 19.410688 : 1"
       inkscape:vp_z="58.232063 : 29.116032 : 1"
       inkscape:vp_y="0 : 1000 : 0"
       inkscape:vp_x="0 : 29.116032 : 1"
       sodipodi:type="inkscape:persp3d" />
    <inkscape:perspective
       id="perspective6954"
       inkscape:persp3d-origin="290 : 193.33333 : 1"
       inkscape:vp_z="580 : 290 : 1"
       inkscape:vp_y="0 : 1000 : 0"
       inkscape:vp_x="0 : 290 : 1"
       sodipodi:type="inkscape:persp3d" />
    <marker
       viewBox="0 0 10 10"
       refY="5"
       refX="10"
       orient="auto"
       markerWidth="4"
       markerUnits="strokeWidth"
       markerHeight="3"
       id="ArrowStart">
      <path
         id="path2295"
         d="M 10 0 L 0 5 L 10 10 z" />
    </marker>
    <marker
       viewBox="0 0 10 10"
       refY="5"
       refX="0"
       orient="auto"
       markerWidth="4"
       markerUnits="strokeWidth"
       markerHeight="3"
       id="ArrowEnd">
      <path
         id="path2292"
         d="M 0 0 L 10 5 L 0 10 z" />
    </marker>
    <inkscape:perspective
       id="perspective7597"
       inkscape:persp3d-origin="178.5405 : 158.483 : 1"
       inkscape:vp_z="357.08099 : 237.7245 : 1"
       inkscape:vp_y="0 : 1000 : 0"
       inkscape:vp_x="0 : 237.7245 : 1"
       sodipodi:type="inkscape:persp3d" />
  </defs>
  <g
     id="g1327"
     transform="translate(0.5,-0.5)">
    <path
       d="M 66.275,1.768 C 24.94,1.768 1.704,23.139 1.704,66.804 l 0,450.123 c 0,40.844 20.894,62.229 62.192,62.229 l 452.024,0 c 41.307,0 62.229,-20.316 62.229,-62.229 l 0,-450.123 c 0,-42.601 -20.922,-65.036 -63.522,-65.036 -0.003,0 -448.494,-0.143 -448.352,0 z"
       style="fill:#111111;stroke:#eeeeee;stroke-width:3.40799999"
       id="path1329"
       inkscape:connector-curvature="0" />
  </g>
  <g
     id="g2319"
     transform="translate(879.29125,36.805119)">
    <path
       id="path2323"
       style="fill:#ffffff;stroke:none"
       d="" />
  </g>
  <g
     id="g2325"
     transform="translate(879.29125,36.805119)">
    <path
       id="path2329"
       style="fill:#ffffff;stroke:none"
       d="" />
  </g>
  <path
     style="color:#000000;fill:#ffffff;fill-opacity:1;fill-rule:nonzero;stroke:none;stroke-width:150;marker:none;visibility:visible;display:inline;overflow:visible;enable-background:accumulate"
     d="m 441.34375,99.96875 c -39.41017,-0.1594 -78.92599,26.52501 -83.78125,70.0625 l 0,310 164,0 0,-310 C 510.80665,121.14268 476.11743,100.1094 441.34375,99.96875 z M 437.4375,149.125 c 27.72723,0 50.21875,25.97974 50.21875,38.28125 0,12.30152 -22.49152,22.25 -50.21875,22.25 -27.72722,0 -50.1875,-9.94848 -50.1875,-22.25 0,-12.30151 22.46028,-38.28125 50.1875,-38.28125 z"
     id="rect3015"
     inkscape:connector-curvature="0"
     sodipodi:nodetypes="sccccssssss" />
  <path
     style="fill:none;stroke:#ffffff;stroke-width:25.5;stroke-linecap:round;stroke-linejoin:round;stroke-miterlimit:4;stroke-opacity:1;stroke-dasharray:none"
     d="m 393.36934,430.83881 c 0,0 -77.93187,-12.34367 -156.57212,24.33809 -57.33796,26.7453 -201.804291,76.84374 -119.4142,-17.47918 22.82164,-26.12698 42.54702,-35.40801 42.29289,-90.58862"
     id="path3801"
     inkscape:connector-curvature="0"
     sodipodi:nodetypes="cssc" />
  <path
     style="color:#000000;fill:#ffffff;fill-opacity:1;fill-rule:nonzero;stroke:none;stroke-width:18.20000076;marker:none;visibility:visible;display:inline;overflow:visible;enable-background:accumulate"
     d="m 183.5255,353.04865 -47.03188,-1.14877 C 101.36384,349.67462 91.453082,341.88532 73.710562,333.24793 l -1.001755,-28.54861 -14.077276,-7.0906 -0.201879,-79.54243 c 1.60805,-6.66249 3.12591,-7.79727 9.15549,-10.13324 l 185.915918,0 c 8.08191,-0.53257 11.72933,5.12798 11.58953,12.61708 l -0.43869,79.42172 -13.55297,7.57202 -0.0935,29.78792 c -18.78989,13.51513 -38.1563,12.5609 -67.47989,15.71686 z"
     id="rect3803"
     inkscape:connector-curvature="0"
     sodipodi:nodetypes="cccccccccccccc" />
  <path
     style="fill:none;stroke:#ffffff;stroke-width:40.83;stroke-linecap:round;stroke-linejoin:miter;stroke-miterlimit:4;stroke-opacity:1;stroke-dasharray:none"
     d="m 220.65038,240.70899 0,-120.73918"
     id="path3806"
     inkscape:connector-curvature="0"
     sodipodi:nodetypes="cc" />
  <path
     style="fill:none;stroke:#ffffff;stroke-width:40.83;stroke-linecap:round;stroke-linejoin:miter;stroke-miterlimit:4;stroke-opacity:1;stroke-dasharray:none"
     d="m 104.60455,237.78775 0,-120.73919"
     id="path3806-9"
     inkscape:connector-curvature="0"
     sodipodi:nodetypes="cc" />
</svg>

<svg width="580" height="580" viewBox="0 0 580 580" fill="none" xmlns="http://www.w3.org/2000/svg">
<g clip-path="url(#clip0)">
<path d="M66.7751 1.26766C25.4401 1.26766 2.2041 22.6387 2.2041 66.3037V516.427C2.2041 557.271 23.0981 578.656 64.3961 578.656H516.42C557.727 578.656 578.649 558.34 578.649 516.427V66.3037C578.649 23.7027 557.727 1.26766 515.127 1.26766C515.124 1.26766 66.6331 1.12466 66.7751 1.26766V1.26766Z" fill="#111111" stroke="#EEEEEE" stroke-width="3.408"/>
<path d="M441.344 99.9685C401.934 99.8091 362.418 126.493 357.562 170.031V480.031H521.562V170.031C510.807 121.142 476.117 100.109 441.344 99.9685ZM437.438 149.125C465.165 149.125 487.656 175.104 487.656 187.406C487.656 199.708 465.165 209.656 437.438 209.656C409.71 209.656 387.25 199.708 387.25 187.406C387.25 175.104 409.71 149.125 437.438 149.125Z" fill="white"/>
<path d="M393.369 430.839C393.369 430.839 315.437 418.495 236.797 455.177C179.459 481.922 34.9928 532.021 117.383 437.698C140.205 411.571 159.93 402.29 159.676 347.109" stroke="white" stroke-width="25.5" stroke-linecap="round" stroke-linejoin="round"/>
<path d="M183.526 353.049L136.494 351.9C101.364 349.675 91.4531 341.885 73.7106 333.248L72.7088 304.699L58.6316 297.609L58.4297 218.066C60.0377 211.404 61.5556 210.269 67.5852 207.933H253.501C261.583 207.401 265.23 213.061 265.091 220.55L264.652 299.972L251.099 307.544L251.005 337.332C232.216 350.847 212.849 349.893 183.526 353.049H183.526Z" fill="white"/>
<path d="M220.65 240.709V119.97" stroke="white" stroke-width="40.83" stroke-linecap="round"/>
<path d="M104.604 237.788V117.049" stroke="white" stroke-width="40.83" stroke-linecap="round"/>
</g>
<defs>
<clipPath id="clip0">
<path d="M0 0H580V580H0V0Z" fill="white"/>
</clipPath>
</defs>
</svg>
